src/resources/flags/gh.svg

<svg height="336" viewBox="0 0 512 336" width="512" xmlns="http://www.w3.org/2000/svg"><g fill="none"><path d="m512.001 112.092h-512.001v-102.989a8.829 8.829 0 0 1 8.828-8.828h494.345a8.829 8.829 0 0 1 8.828 8.828z" fill="#ff4b55"/><path d="m503.172 335.724h-494.344a8.829 8.829 0 0 1 -8.828-8.828v-102.988h512v102.988a8.828 8.828 0 0 1 -8.828 8.828z" fill="#73af00"/><path d="m0 112.088h512v111.812h-512z" fill="#ffe15a"/><path d="m259.722 125.909 9.213 27.623 29.118.226c3.769.029 5.333 4.84 2.301 7.08l-23.424 17.298 8.783 27.763c1.138 3.594-2.955 6.568-6.023 4.375l-23.69-16.934-23.69 16.932c-3.066 2.193-7.159-.781-6.023-4.375l8.783-27.763-23.424-17.298c-3.032-2.24-1.47-7.05 2.301-7.08l29.118-.226 9.213-27.623c1.193-3.574 6.251-3.574 7.444.002z" fill="#464655"/></g></svg>

<svg width="512" height="336" viewBox="0 0 512 336" xmlns="http://www.w3.org/2000/svg">
  <g fill="none">
    <path d="M512.001 112.092H0V9.103A8.829 8.829 0 0 1 8.828.275h494.345a8.829 8.829 0 0 1 8.828 8.828v102.989z" fill="#FF4B55"/>
    <path d="M503.172 335.724H8.828A8.829 8.829 0 0 1 0 326.896V223.908h512v102.988a8.828 8.828 0 0 1-8.828 8.828z" fill="#73AF00"/>
    <path fill="#FFE15A" d="M0 112.088h512V223.9H0z"/>
    <path d="M259.722 125.909l9.213 27.623 29.118.226c3.769.029 5.333 4.84 2.301 7.08l-23.424 17.298 8.783 27.763c1.138 3.594-2.955 6.568-6.023 4.375L256 193.34l-23.69 16.932c-3.066 2.193-7.159-.781-6.023-4.375l8.783-27.763-23.424-17.298c-3.032-2.24-1.47-7.05 2.301-7.08l29.118-.226 9.213-27.623c1.193-3.574 6.251-3.574 7.444.002z" fill="#464655"/>
  </g>
</svg>
